X:9622
T:Limerick Lasses, The
R:reel
D:Silly Wizard: Live Wizardry
D:Molloy, Peoples, Brady
Z:id:hn-reel-479
M:C|
K:D
dBAF DEFD|~G3A BGE2|dBAF DEFD|GBAG FD~D2:|
|:dcde ~f3d|efed cA~A2|(3Bcd ef g2ag|fdec d2dA:|
|:BdAd BdAd|(3Bcd ef gfed|BdAd Bdag|f2eg fd~d2:|
